X: 1681
T: The Spring Garden
M:2/4
L:1/16
B:O'Neill's 1681
N:"collected by J.O'Neill"
K:G
(3ABc \
| dgdg ecAF | GFGB AFDC | B,DGFD2c-B | (3ABG(3FGED2(3ABc |
| dfdf ecAF | GFGB AFDC | B,DGF EcAF | G2G2G2 :| c-B |
| AGAB cBcd | edef g2(3def | gfed cBAG | Add^c d2(3ABc |
| dfdf ecAF | GFGB AFDC | B,DGF DcAF | G2G2G2 :|


